lib/svgs/collapse.svg

<svg xmlns="http://www.w3.org/2000/svg" viewBox="0 0 20 20">
    <path fill="#000" fill-rule="evenodd" d="M7.432,8.032 C7.76337085,8.032 8.032,7.76337085 8.032,7.432 L8.032,2.6 C8.032,2.26862915 7.76337085,2 7.432,2 C7.10062915,2 6.832,2.26862915 6.832,2.6 L6.83199978,6.83199978 L2.6,6.832 C2.26862915,6.832 2,7.10062915 2,7.432 C2,7.76337085 2.26862915,8.032 2.6,8.032 L7.432,8.032 L7.432,8.032 Z M13.368,6.83199978 L13.368,2.6 C13.368,2.26862915 13.0993708,2 12.768,2 C12.4366292,2 12.168,2.26862915 12.168,2.6 L12.168,7.432 C12.168,7.76337085 12.4366292,8.032 12.768,8.032 L17.6,8.032 C17.9313708,8.032 18.2,7.76337085 18.2,7.432 C18.2,7.10062915 17.9313708,6.832 17.6,6.832 L13.368,6.83199978 L13.368,6.83199978 Z M6.83199978,13.3682 L6.832,17.6002 C6.832,17.9315708 7.10062915,18.2002 7.432,18.2002 C7.76337085,18.2002 8.032,17.9315708 8.032,17.6002 L8.032,12.7682 C8.032,12.4368292 7.76337085,12.1682 7.432,12.1682 L2.6,12.1682 C2.26862915,12.1682 2,12.4368292 2,12.7682 C2,13.0995708 2.26862915,13.3682 2.6,13.3682 L6.83199978,13.3682 L6.83199978,13.3682 Z M12.768,12.1684 C12.4366292,12.1684 12.168,12.4370292 12.168,12.7684 L12.168,17.6004 C12.168,17.9317708 12.4366292,18.2004 12.768,18.2004 C13.0993708,18.2004 13.368,17.9317708 13.368,17.6004 L13.368,13.3684 L17.6,13.3684 C17.9313708,13.3684 18.2,13.0997708 18.2,12.7684 C18.2,12.4370292 17.9313708,12.1684 17.6,12.1684 L12.768,12.1684 L12.768,12.1684 Z"/>
</svg>

<svg xmlns="http://www.w3.org/2000/svg" viewBox="0 0 20 20">
    <path fill="#000" fill-rule="evenodd" d="M7.432 8.032a.6.6 0 0 0 .6-.6V2.6a.6.6 0 1 0-1.2 0v4.232H2.6a.6.6 0 1 0 0 1.2h4.832m5.936-1.2V2.6a.6.6 0 0 0-1.2 0v4.832a.6.6 0 0 0 .6.6H17.6a.6.6 0 0 0 0-1.2h-4.232m-6.536 6.536V17.6a.6.6 0 0 0 1.2 0v-4.832a.6.6 0 0 0-.6-.6H2.6a.6.6 0 0 0 0 1.2h4.232m5.936-1.2a.6.6 0 0 0-.6.6V17.6a.6.6 0 0 0 1.2 0v-4.232H17.6a.6.6 0 0 0 0-1.2h-4.832"/>
</svg>
